svg/emoji_u1f6a1.svg

<svg width="128" height="128" viewBox="0 0 128 128" fill="none" xmlns="http://www.w3.org/2000/svg">
<path d="M92.4602 65.9497H42.2902L34.4902 71.7297L34.6302 107.5C34.6302 116.01 43.0402 119.64 44.3502 120.22H90.4302C91.7402 119.64 100.15 116.02 100.15 107.5L100.29 71.7297L92.4602 65.9497Z" fill="#FFEB3B" style="fill:#FFEB3B;fill:color(display-p3 1.0000 0.9216 0.2314);fill-opacity:1;"/>
<path d="M44.1201 120.09C44.1201 120.09 48.5601 123.5 55.2301 123.5C58.7701 123.5 75.9801 123.5 79.5201 123.5C86.1901 123.5 90.6301 120.09 90.6301 120.09H44.1201Z" fill="#F9BA1A" style="fill:#F9BA1A;fill:color(display-p3 0.9750 0.7304 0.1016);fill-opacity:1;"/>
<path d="M100.27 82.9896C100.27 82.9896 100.25 72.6896 100.25 71.6596C100.25 69.5196 93.3902 65.8696 91.5802 65.8696H43.2202C41.4102 65.8696 34.4902 69.7396 34.4902 71.8796C34.4902 72.8996 34.5202 82.9796 34.5202 82.9796H100.27V82.9896Z" fill="#E0E0E0" style="fill:#E0E0E0;fill:color(display-p3 0.8784 0.8784 0.8784);fill-opacity:1;"/>
<path d="M79.1398 64.5597H55.6898C54.0698 64.5597 52.7598 63.2497 52.7598 61.6297C52.7598 60.0097 54.0698 58.6997 55.6898 58.6997H79.1398C80.7598 58.6997 82.0698 60.0097 82.0698 61.6297C82.0698 63.2497 80.7598 64.5597 79.1398 64.5597Z" fill="#607D8B" style="fill:#607D8B;fill:color(display-p3 0.3765 0.4902 0.5451);fill-opacity:1;"/>
<path d="M48.5998 62.4199C52.4298 62.4199 81.5698 62.4199 85.6398 62.4199C89.7198 62.4199 92.2398 65.8299 92.2398 65.8299H42.5098C42.5098 65.8299 44.7698 62.4199 48.5998 62.4199Z" fill="#82AEC0" style="fill:#82AEC0;fill:color(display-p3 0.5098 0.6824 0.7529);fill-opacity:1;"/>
<path d="M59.6902 120.99H76.1902C78.0202 120.99 79.4902 119.51 79.4902 117.69V77.76C79.4902 75.56 77.7102 73.79 75.5202 73.79H59.6902C57.7902 73.79 56.2402 75.33 56.2402 77.24V117.55C56.2402 119.45 57.7802 120.99 59.6902 120.99Z" fill="#FFEB3B" stroke="#F9BA1A" style="fill:#FFEB3B;fill:color(display-p3 1.0000 0.9216 0.2314);fill-opacity:1;stroke:#F9BA1A;stroke:color(display-p3 0.9750 0.7304 0.1016);stroke-opacity:1;" stroke-width="2" stroke-miterlimit="10"/>
<path d="M4 4.65967V8.73967L124 34.8797V30.7897L4 4.65967Z" fill="#9E9E9E" style="fill:#9E9E9E;fill:color(display-p3 0.6196 0.6196 0.6196);fill-opacity:1;"/>
<path d="M92.1602 15.4598L34.1002 3.96982C32.9802 3.73982 31.9002 4.54982 31.8402 5.69982C31.7102 8.15982 30.7502 11.6698 36.7202 12.8898C43.4302 14.2598 50.6802 16.2398 50.6802 16.2398C54.1102 16.9398 56.5102 19.8598 56.7002 23.1998C56.7602 24.3598 57.5902 25.3398 58.7302 25.5698L62.8802 26.4198C64.0202 26.6498 65.1602 26.0798 65.6802 25.0298C67.1602 22.0298 70.5202 20.2898 73.9402 20.9898C73.9402 20.9898 81.3902 21.9998 88.0902 23.3698C94.0702 24.5898 96.0702 24.8098 96.0702 24.8098C96.0702 24.8098 97.7002 16.8198 92.1602 15.4598Z" fill="#607D8B" style="fill:#607D8B;fill:color(display-p3 0.3765 0.4902 0.5451);fill-opacity:1;"/>
<path d="M50.53 18.6898C53.4681 18.6898 55.85 16.308 55.85 13.3698C55.85 10.4316 53.4681 8.0498 50.53 8.0498C47.5918 8.0498 45.21 10.4316 45.21 13.3698C45.21 16.308 47.5918 18.6898 50.53 18.6898Z" fill="#37474F" style="fill:#37474F;fill:color(display-p3 0.2157 0.2784 0.3098);fill-opacity:1;"/>
<path d="M38.9201 16.3197C41.8583 16.3197 44.2401 13.9378 44.2401 10.9997C44.2401 8.06153 41.8583 5.67969 38.9201 5.67969C35.9819 5.67969 33.6001 8.06153 33.6001 10.9997C33.6001 13.9378 35.9819 16.3197 38.9201 16.3197Z" fill="#37474F" style="fill:#37474F;fill:color(display-p3 0.2157 0.2784 0.3098);fill-opacity:1;"/>
<path d="M87.1198 26.1498C90.058 26.1498 92.4398 23.7679 92.4398 20.8298C92.4398 17.8916 90.058 15.5098 87.1198 15.5098C84.1816 15.5098 81.7998 17.8916 81.7998 20.8298C81.7998 23.7679 84.1816 26.1498 87.1198 26.1498Z" fill="#37474F" style="fill:#37474F;fill:color(display-p3 0.2157 0.2784 0.3098);fill-opacity:1;"/>
<path d="M75.5099 23.7796C78.4481 23.7796 80.8299 21.3978 80.8299 18.4596C80.8299 15.5215 78.4481 13.1396 75.5099 13.1396C72.5718 13.1396 70.1899 15.5215 70.1899 18.4596C70.1899 21.3978 72.5718 23.7796 75.5099 23.7796Z" fill="#37474F" style="fill:#37474F;fill:color(display-p3 0.2157 0.2784 0.3098);fill-opacity:1;"/>
<path d="M50.0602 20.9696C52.9984 20.9696 55.3802 18.5877 55.3802 15.6496C55.3802 12.7114 52.9984 10.3296 50.0602 10.3296C47.1221 10.3296 44.7402 12.7114 44.7402 15.6496C44.7402 18.5877 47.1221 20.9696 50.0602 20.9696Z" fill="#82AEC0" style="fill:#82AEC0;fill:color(display-p3 0.5098 0.6824 0.7529);fill-opacity:1;"/>
<path d="M38.4499 18.6C41.388 18.6 43.7699 16.2181 43.7699 13.28C43.7699 10.3418 41.388 7.95996 38.4499 7.95996C35.5117 7.95996 33.1299 10.3418 33.1299 13.28C33.1299 16.2181 35.5117 18.6 38.4499 18.6Z" fill="#82AEC0" style="fill:#82AEC0;fill:color(display-p3 0.5098 0.6824 0.7529);fill-opacity:1;"/>
<path d="M87.0002 28.5096C89.9383 28.5096 92.3202 26.1278 92.3202 23.1896C92.3202 20.2515 89.9383 17.8696 87.0002 17.8696C84.062 17.8696 81.6802 20.2515 81.6802 23.1896C81.6802 26.1278 84.062 28.5096 87.0002 28.5096Z" fill="#82AEC0" style="fill:#82AEC0;fill:color(display-p3 0.5098 0.6824 0.7529);fill-opacity:1;"/>
<path d="M75.3898 26.14C78.328 26.14 80.7098 23.7582 80.7098 20.82C80.7098 17.8818 78.328 15.5 75.3898 15.5C72.4517 15.5 70.0698 17.8818 70.0698 20.82C70.0698 23.7582 72.4517 26.14 75.3898 26.14Z" fill="#82AEC0" style="fill:#82AEC0;fill:color(display-p3 0.5098 0.6824 0.7529);fill-opacity:1;"/>
<path d="M35.1499 12.29C35.3999 11.55 35.9199 10.9 36.5899 10.49C37.2599 10.08 38.0799 9.92003 38.8499 10.05" stroke="#94D1E0" style="stroke:#94D1E0;stroke:color(display-p3 0.5804 0.8196 0.8784);stroke-opacity:1;" stroke-width="2" stroke-miterlimit="10"/>
<path d="M46.73 14.4697C47.55 13.2397 49.05 12.4897 50.53 12.5597" stroke="#94D1E0" style="stroke:#94D1E0;stroke:color(display-p3 0.5804 0.8196 0.8784);stroke-opacity:1;" stroke-width="2" stroke-miterlimit="10"/>
<path d="M72.0498 19.0798C72.6298 17.6298 74.2398 16.6698 75.7998 16.8398" stroke="#94D1E0" style="stroke:#94D1E0;stroke:color(display-p3 0.5804 0.8196 0.8784);stroke-opacity:1;" stroke-width="2" stroke-miterlimit="10"/>
<path d="M83.8901 21.4997C84.5701 20.0897 86.3801 19.3297 87.8701 19.8297" stroke="#94D1E0" style="stroke:#94D1E0;stroke:color(display-p3 0.5804 0.8196 0.8784);stroke-opacity:1;" stroke-width="2" stroke-miterlimit="10"/>
<path d="M41.5202 68.85C43.0302 66.62 44.9702 66.85 46.2002 66.85H57.3002C57.9302 66.85 58.2402 67.98 57.8002 68.63L57.6502 68.85C56.6502 70.34 55.2802 71.15 53.8602 71.11L44.5302 70.79C44.1402 70.78 40.0202 71.08 41.5202 68.85Z" fill="white" style="fill:white;fill-opacity:1;"/>
<path d="M69.82 60.9397C66.29 60.8497 61.01 59.4497 57.91 54.1497C55.55 50.0997 53.96 45.6597 54.84 38.0597C55.72 30.4597 59.44 22.2497 58.91 15.4097H65.91C65.72 26.6197 62.21 33.1297 61.74 40.2497C61.26 47.3697 63.5 52.4797 71.22 55.5897C74.79 57.0297 74.57 59.2797 74.57 59.2797L69.82 60.9397Z" fill="#607D8B" style="fill:#607D8B;fill:color(display-p3 0.3765 0.4902 0.5451);fill-opacity:1;"/>
<path d="M62.6602 58.7999H74.5702C74.5702 58.7999 74.1002 56.5699 69.0802 56.0099C64.0502 55.4499 62.6602 58.7999 62.6602 58.7999Z" fill="#37474F" style="fill:#37474F;fill:color(display-p3 0.2157 0.2784 0.3098);fill-opacity:1;"/>
<path d="M82.6802 104.65V79.9198C82.6802 78.3398 83.9602 77.0698 85.5302 77.0698H100.27L100.09 107.5H85.5302C83.9602 107.5 82.6802 106.22 82.6802 104.65Z" fill="#37474F" style="fill:#37474F;fill:color(display-p3 0.2157 0.2784 0.3098);fill-opacity:1;"/>
<path d="M84.3398 102.57V81.76C84.3398 80.57 85.2898 79.61 86.4698 79.61L100.25 79.52L100.1 104.72H86.4698C85.2898 104.71 84.3398 103.75 84.3398 102.57Z" fill="#BAE2FD" style="fill:#BAE2FD;fill:color(display-p3 0.7294 0.8863 0.9922);fill-opacity:1;"/>
<path d="M52.0802 104.65V79.9198C52.0802 78.3398 50.8002 77.0698 49.2302 77.0698H34.4902L34.6702 107.5H49.2202C50.8002 107.5 52.0802 106.22 52.0802 104.65Z" fill="#37474F" style="fill:#37474F;fill:color(display-p3 0.2157 0.2784 0.3098);fill-opacity:1;"/>
<path d="M50.41 102.57V81.76C50.41 80.57 49.46 79.61 48.28 79.61L34.5 79.52L34.65 104.72H48.28C49.46 104.71 50.41 103.75 50.41 102.57Z" fill="#BAE2FD" style="fill:#BAE2FD;fill:color(display-p3 0.7294 0.8863 0.9922);fill-opacity:1;"/>
<path d="M73.4799 77.0298H61.5799C60.1099 77.0298 58.9199 78.2198 58.9199 79.6898V104.7C58.9199 106.17 60.1099 107.36 61.5799 107.36H73.4799C74.9499 107.36 76.1399 106.17 76.1399 104.7V79.6898C76.1299 78.2198 74.9399 77.0298 73.4799 77.0298Z" fill="#37474F" style="fill:#37474F;fill:color(display-p3 0.2157 0.2784 0.3098);fill-opacity:1;"/>
<path d="M72.3599 79.6396H62.6899C61.5899 79.6396 60.6899 80.5396 60.6899 81.6396V102.74C60.6899 103.84 61.5899 104.74 62.6899 104.74H72.3599C73.4599 104.74 74.3599 103.84 74.3599 102.74V81.6396C74.3599 80.5396 73.4699 79.6396 72.3599 79.6396Z" fill="#BAE2FD" style="fill:#BAE2FD;fill:color(display-p3 0.7294 0.8863 0.9922);fill-opacity:1;"/>
</svg>

<?xml version="1.0" encoding="utf-8"?>
<!-- Generator: Adobe Illustrator 25.2.3, SVG Export Plug-In . SVG Version: 6.00 Build 0)  -->
<svg version="1.1" id="Layer_2" xmlns="http://www.w3.org/2000/svg" xmlns:xlink="http://www.w3.org/1999/xlink" x="0px" y="0px"
	 viewBox="0 0 128 128" style="enable-background:new 0 0 128 128;" xml:space="preserve">
<g>
	<path style="fill:#F4511E;" d="M92.46,65.95H42.29l-7.8,5.78l0.14,35.77c0,8.51,8.41,12.14,9.72,12.72h46.08
		c1.31-0.58,9.72-4.2,9.72-12.72l0.14-35.77L92.46,65.95z"/>
	<path style="fill:#C62828;" d="M44.12,120.09c0,0,4.44,3.41,11.11,3.41c3.54,0,20.75,0,24.29,0c6.67,0,11.11-3.41,11.11-3.41H44.12
		z"/>
	<path style="fill:#E0E0E0;" d="M100.27,82.99c0,0-0.02-10.3-0.02-11.33c0-2.14-6.86-5.79-8.67-5.79H43.22
		c-1.81,0-8.73,3.87-8.73,6.01c0,1.02,0.03,11.1,0.03,11.1H100.27z"/>
	<path style="fill:#607D8B;" d="M79.14,64.56H55.69c-1.62,0-2.93-1.31-2.93-2.93v0c0-1.62,1.31-2.93,2.93-2.93h23.45
		c1.62,0,2.93,1.31,2.93,2.93v0C82.07,63.25,80.76,64.56,79.14,64.56z"/>
	<path style="fill:#82AEC0;" d="M48.6,62.42c3.83,0,32.97,0,37.04,0c4.08,0,6.6,3.41,6.6,3.41H42.51
		C42.51,65.83,44.77,62.42,48.6,62.42z"/>
	<g>
		<path style="fill:#F4511E;stroke:#C62828;stroke-width:2;stroke-miterlimit:10;" d="M59.69,120.99h16.5c1.83,0,3.3-1.48,3.3-3.3
			V77.76c0-2.2-1.78-3.97-3.97-3.97H59.69c-1.9,0-3.45,1.54-3.45,3.45v40.31C56.24,119.45,57.78,120.99,59.69,120.99z"/>
	</g>
	<g>
		<polygon style="fill:#9E9E9E;" points="4,4.66 4,8.74 124,34.88 124,30.79 		"/>
		<path style="fill:#607D8B;" d="M92.16,15.46L34.1,3.97c-1.12-0.23-2.2,0.58-2.26,1.73c-0.13,2.46-1.09,5.97,4.88,7.19
			c6.71,1.37,13.96,3.35,13.96,3.35c3.43,0.7,5.83,3.62,6.02,6.96c0.06,1.16,0.89,2.14,2.03,2.37l4.15,0.85
			c1.14,0.23,2.28-0.34,2.8-1.39c1.48-3,4.84-4.74,8.26-4.04c0,0,7.45,1.01,14.15,2.38c5.98,1.22,7.98,1.44,7.98,1.44
			S97.7,16.82,92.16,15.46z"/>
		<circle style="fill:#37474F;" cx="50.53" cy="13.37" r="5.32"/>
		<circle style="fill:#37474F;" cx="38.92" cy="11" r="5.32"/>
		<circle style="fill:#37474F;" cx="87.12" cy="20.83" r="5.32"/>
		<circle style="fill:#37474F;" cx="75.51" cy="18.46" r="5.32"/>
		<circle style="fill:#82AEC0;" cx="50.06" cy="15.65" r="5.32"/>
		<circle style="fill:#82AEC0;" cx="38.45" cy="13.28" r="5.32"/>
		<circle style="fill:#82AEC0;" cx="87" cy="23.19" r="5.32"/>
		<circle style="fill:#82AEC0;" cx="75.39" cy="20.82" r="5.32"/>
		<path style="fill:none;stroke:#94D1E0;stroke-width:2;stroke-miterlimit:10;" d="M35.15,12.29c0.25-0.74,0.77-1.39,1.44-1.8
			c0.67-0.41,1.49-0.57,2.26-0.44"/>
		<path style="fill:none;stroke:#94D1E0;stroke-width:2;stroke-miterlimit:10;" d="M46.73,14.47c0.82-1.23,2.32-1.98,3.8-1.91"/>
		<path style="fill:none;stroke:#94D1E0;stroke-width:2;stroke-miterlimit:10;" d="M72.05,19.08c0.58-1.45,2.19-2.41,3.75-2.24"/>
		<path style="fill:none;stroke:#94D1E0;stroke-width:2;stroke-miterlimit:10;" d="M83.89,21.5c0.68-1.41,2.49-2.17,3.98-1.67"/>
	</g>
	<path style="fill:#FFFFFF;" d="M41.52,68.85c1.51-2.23,3.45-2,4.68-2h11.1c0.63,0,0.94,1.13,0.5,1.78l-0.15,0.22
		c-1,1.49-2.37,2.3-3.79,2.26l-9.33-0.32C44.14,70.78,40.02,71.08,41.52,68.85z"/>
	<path style="fill:#607D8B;" d="M69.82,60.94c-3.53-0.09-8.81-1.49-11.91-6.79c-2.36-4.05-3.95-8.49-3.07-16.09
		s4.6-15.81,4.07-22.65h7c-0.19,11.21-3.7,17.72-4.17,24.84c-0.48,7.12,1.76,12.23,9.48,15.34c3.57,1.44,3.35,3.69,3.35,3.69
		L69.82,60.94z"/>
	<path style="fill:#37474F;" d="M62.66,58.8h11.91c0,0-0.47-2.23-5.49-2.79C64.05,55.45,62.66,58.8,62.66,58.8z"/>
	<path style="fill:#37474F;" d="M82.68,104.65V79.92c0-1.58,1.28-2.85,2.85-2.85h14.74l-0.18,30.43H85.53
		C83.96,107.5,82.68,106.22,82.68,104.65z"/>
	<g>
		<path style="fill:#BAE2FD;" d="M84.34,102.57V81.76c0-1.19,0.95-2.15,2.13-2.15l13.78-0.09l-0.15,25.2H86.47
			C85.29,104.71,84.34,103.75,84.34,102.57z"/>
	</g>
	<path style="fill:#37474F;" d="M52.08,104.65V79.92c0-1.58-1.28-2.85-2.85-2.85H34.49l0.18,30.43h14.55
		C50.8,107.5,52.08,106.22,52.08,104.65z"/>
	<g>
		<path style="fill:#BAE2FD;" d="M50.41,102.57V81.76c0-1.19-0.95-2.15-2.13-2.15l-13.78-0.09l0.15,25.2h13.63
			C49.46,104.71,50.41,103.75,50.41,102.57z"/>
	</g>
	<path style="fill:#37474F;" d="M73.48,77.03h-11.9c-1.47,0-2.66,1.19-2.66,2.66v25.01c0,1.47,1.19,2.66,2.66,2.66h11.9
		c1.47,0,2.66-1.19,2.66-2.66V79.69C76.13,78.22,74.94,77.03,73.48,77.03z"/>
	<g>
		<path style="fill:#BAE2FD;" d="M72.36,79.64h-9.67c-1.1,0-2,0.9-2,2v21.1c0,1.1,0.9,2,2,2h9.67c1.1,0,2-0.9,2-2v-21.1
			C74.36,80.54,73.47,79.64,72.36,79.64z"/>
	</g>
</g>
</svg>
